!!!COM:	de Orto, Marbrianus
!!!CDT:	~1460///-1529//
!!!OPR:	Missa Mi mi (Missa Petite camusette)
!!!ONM:	3
!!!OTL:	Credo
!!!AGN:	Mass; Credo
!!!SCT:	Ort1005c
!!!SCA:	Ort1005c
!!!voices-OPR:	4
!!!voices:	4
**kern	**kern	**kern	**kern
*staff4	*staff3	*staff2	*staff1
*Ivox	*Ivox	*Ivox	*Ivox
*I"Bassus	*I"Tenor	*I"Altus	*I"Discantus
*I'B	*I'T	*I'A	*I'D
*>[A,B,C,D]	*>[A,B,C,D]	*>[A,B,C,D]	*>[A,B,C,D]
*>A	*>A	*>A	*>A
*clefF4	*clefGv2	*clefGv2	*clefG2
*k[]	*k[]	*k[]	*k[]
*M3/1	*M3/1	*M3/1	*M3/1
*met(O)	*met(O)	*met(O)	*met(O)
!!section: Patrem omnipotentem
!!!OMD: Patrem omnipotentem
=1-	=1-	=1-	=1-
0E	0.r	0.r	0.r
1F	.	.	.
=2	=2	=2	=2
1E	1r	1B	0.r
1AA	1r	1c	.
1r	1E	1B	.
=3	=3	=3	=3
1r	1F	2A/	0.r
.	.	2.c\	.
1AA	1E	.	.
.	.	4B\	.
.	.	4A/	.
.	.	8G/L	.
.	.	8F/J	.
2AA/	2C/	2E/	.
2BB/	2D/	2D/	.
=4	=4	=4	=4
1C	1E	2G/	1r
.	.	1A	.
1GG	2D/	.	1b
.	1D	1G	.
1AA	.	.	1cc
.	2C/	2F#i/	.
=5	=5	=5	=5
1GG	1D	1G	1b
1r	2E/	1c	2g/
.	2F/	.	2a/
1r	2G/	2B\	2b\
.	2A/	2c\	[2a/
=6	=6	=6	=6
1r	2E/	1B	4a/]
.	.	.	8g#i/L
.	.	.	8f#i/J
.	2E/	.	2g#i/
2AA/	4F/	4A/	1a
.	4E/	4B\	.
2AA/	[1.A	4c\	.
.	.	4d\	.
2C/	.	2e\	2e/
2D\	.	[2d\	2fni/
=7	=7	=7	=7
1E	2A/]	2d\]	1g
.	2G/	1c	.
1AA	1.c	.	1a
.	.	1e	.
2C/	.	.	2g/
2D\	[2A/	[2f\	2f/
=8	=8	=8	=8
1E	4A/]	2f\]	2r
.	4G/	.	.
.	1c	1e	2g/
1F	.	.	1a
.	2A/	2d\	.
1E	1B	1e	[1g
=9	=9	=9	=9
1r	1E	2B\	1g]
.	.	2c\	.
2G\	1r	2d\	2b\
2G\	.	2d\	2b\
2E\	1r	[1e	2b\
2E\	.	.	2b\
=10	=10	=10	=10
1AA	2C/	1e]	1cc
.	2C/	.	.
1r	2D/	2.d\	2b\
.	2D/	.	2a/
.	.	4c\	.
1r	1E	1B	1g#
=11	=11	=11	=11
2D\	1F	1A	[0.a
2D\	.	.	.
1AA	2E/	1e	.
.	1A	.	.
1D	.	1f	.
.	2F/	.	.
=12	=12	=12	=12
2C/	1c	1e	1a]
1AA	.	.	.
.	2A/	2c\	1r
2GG/	2B\	2d\	.
2.C/	1G	2.e\	1r
4D\	.	4d\	.
=13	=13	=13	=13
1E	1r	4c\	1r
.	.	4B\	.
.	.	1B	.
1C	2E/	.	1r
.	2E/	2A/	.
1BB	1G	1B	2d/
.	.	.	2d/
=14	=14	=14	=14
1AA	1A	2c\	2.e/
.	.	2A/	.
.	.	.	8d/L
.	.	.	8c/J
2E\	2G/	2B\	2B/
2F\	2F/	2A/	1d
1G	1E	2B\	.
.	.	2G/	2c#i/
=15	=15	=15	=15
1A	1D	2F/	1d
.	.	2A/	.
2G\	2r	2B\	2e/
2F\	2A/	2d\	2f/
1E	2B\	[1e	1g
.	2c\	.	.
=16	=16	=16	=16
2r	2A/	1e]	1a
2AA/	1c	.	.
2C/	.	2e\	2g/
2D\	2.A/	2d\	2f/
1AA	.	2c\	1e
.	4B\	.	.
.	2c\	2A/	.
=17	=17	=17	=17
1r	2d\	2d\	2f/
.	2A/	2c\	2e/
1r	1B	1d	1g
1F	1A	1c	1a
=18	=18	=18	=18
2D\	0d	1r	1a
2D\	.	.	.
1BB	.	1r	2b\
.	.	.	2b\
1AA	1c	1e	1cc
=19	=19	=19	=19
1D	1d	1f	1a
1E	2B\	2e\	2r
.	1G	2e\	2b\
2C/	.	2e\	2cc\
2GG/	2G/	2d\	2b\
=20	=20	=20	=20
2AA/	2E/	2c\	2cc\
2D\	2F/	2d\	2a/
2C/	1G	1e	2cc\
2E\	.	.	1b
2G\	2r	2d\	.
2D\	2F/	[2d\	[2a/
=21	=21	=21	=21
1E	1G	2d\]	4a/]
.	.	.	4g/
.	.	2c\	1g
1D	1A	1d	.
.	.	.	2f#i/
1GG	2.G/	2r	1g
.	.	2B\	.
.	4F/	.	.
=22	=22	=22	=22
2AA/	2E/	2c\	0.r
2BB/	2D/	2d\	.
1C	2G/	1e	.
.	2A/	.	.
2GG/	1B	1d	.
2G\	.	.	.
=23	=23	=23	=23
1A	1c	2c\	2e/
.	.	2A/	2f/
1E	1B	1e	1g
1AA	2c\	1r	1e
.	2A/	.	.
=24	=24	=24	=24
1E	2.B\	1e	1g
.	4c\	.	.
1D	1d	1f	1a
1C	[1G	1e	1r
=25	=25	=25	=25
1G	1G]	1d	1b
2r	1A	2c\	1cc
2F\	.	2f\	.
2G\	2r	2d\	1b
2E\	2B\	2e\	.
=26	=26	=26	=26
2F\	2A/	2c\	2r
2G\	2d\	2B\	2b\
2E\	2G/	2r	2b\
2F\	2A/	2d\	2a/
2E\	2c\	2e\	2g/
2D\	2d\	2f\	2a/
=27	=27	=27	=27
2C/	2e\	2.g\	2cc\
1G	2.d\	.	2.b\
.	.	4f\	.
.	.	1d	.
.	4c\	.	4a/
2F\	2A/	.	1a
1E	1B	1e	.
.	.	.	2g#i/
=28	=28	=28	=28
1AA	1A	2c\	1a
.	.	1A	.
1D	1r	.	1r
.	.	2F/	.
2C/	1G	2E/	1r
2E\	.	2G/	.
=29	=29	=29	=29
1D	2F/	2A/	0.r
.	2.A/	1d	.
2F\	.	.	.
.	4G/	.	.
2E\	1G	1c	.
1D	.	.	.
.	2F#i/	[2B\	.
=30	=30	=30	=30
1GG	2G/	2B\]	1d
.	2B\	2G/	.
2AA/	2A/	2.c\	2c/
1C	2.G/	.	2.e/
.	.	4B\	.
.	.	2A/	.
.	4F/	.	4d/
2BB/	2D/	2G/	[2d/
=31	=31	=31	=31
1AA	1E	1A	2d/]
.	.	.	2c#i/
1r	2D/	1r	1d
.	2G/	.	.
1r	2F/	1r	2r
.	2G/	.	2d/
=32	=32	=32	=32
1r	2.A/	1r	2c/
.	.	.	2e/
.	4E/	.	.
1r	4F/	1r	2d/
.	4G/	.	.
.	1A	.	2c/
2r	.	2r	1B
2E\	2G/	2G/	.
=33	=33	=33	=33
2D\	1A	2F/	0.r
2F\	.	2A/	.
2E\	1r	2G/	.
2D\	.	2F/	.
2C/	1c	2E/	.
2AA/	.	[2A/	.
=34	=34	=34	=34
1BB	1d	2A/]	1r
.	.	2G#i/	.
2AA/	1c	2A/	2r
2C/	.	2Gni/	2e/
2D\	1A	4F/	1f
.	.	4D/	.
2F\	.	[2d\	.
=35	=35	=35	=35
1E	1r	2d\]	1g
.	.	2c#i\	.
1D	2r	1d	1a
.	2d\	.	.
2G\	2B\	2d\	2r
2F\	2c\	[2A/	2a/
=36	=36	=36	=36
2D\	2d\	2A/]	2f/
2E\	2B\	2G/	2g/
2AA/	1r	2c\	2a/
2E\	.	2B\	2g/
2r	1c	1A	2.a/
2F\	.	.	.
.	.	.	4g/
=37	=37	=37	=37
2D\	2d\	1r	4f/
.	.	.	4e/
2E\	1B	.	1e
1F	.	1r	.
.	2A/	.	2d/
1E	1B	2G/	1e
.	.	2G/	.
=38	=38	=38	=38
0C	2c\	2G/	0.r
.	2c\	2A/	.
.	1c	2G/	.
.	.	2E/	.
1BB	1d	2F/	.
.	.	2D/	.
=39	=39	=39	=39
2C/	1c	2E/	2g/
2AA/	.	2F/	2a/
1E	2B\	1G	1b
.	1G	.	.
1r	.	1A	1cc
.	2F/	.	.
=40	=40	=40	=40
2E\	1G	1r	1b
2E\	.	.	.
2E\	1r	2e\	2g/
2C/	.	2e\	2r
2D\	1r	2d\	2a/
2AA/	.	2c\	2a/
=41	=41	=41	=41
1r	2G/	1d	2g/
.	2F/	.	2a/
1r	2E/	2e\	1b
.	2G/	1d	.
2D\	2F/	.	1a
2D\	2D/	[2d\	.
=42	=42	=42	=42
2GG/	1G	2d\]	1b
2GG/	.	4D/	.
.	.	4E/	.
1FF	2A/	4F/	1cc
.	.	4G/	.
.	2F/	2A/	.
1C	1E	2G/	1cc
.	.	[2A/	.
=43	=43	=43	=43
1BB	1D	2A/]	1dd
.	.	2G#i/	.
1AA	2E/	1A	1cc
.	1F	.	.
2D\	.	1r	2a/
2G\	2E/	.	2b\
=44	=44	=44	=44
2F\	1A	4A/	2.cc\
.	.	4B\	.
2F\	.	4c\	.
.	.	4d\	8b/L
.	.	.	8a/J
1E	2B\	1e	1g
.	1c	.	.
1AA	.	2e\	1cc
.	2A/	[2e\	.
=45	=45	=45	=45
2E\	2G/	4e\]	2b\
.	.	4c\	.
2F\	2A/	2d\	1a
1E	1B	1e	.
.	.	.	2g#i/
2r	1A	1c	1a
2F\	.	.	.
=46	=46	=46	=46
2F\	2c\	2r	1a
2F\	2c\	2f\	.
2r	2d\	2f\	2a/
2F\	2r	2f\	2a/
4F\	2c\	2r	2a/
4F\	.	.	.
[2F\	4c\	2f\	4a/
.	4c\	.	4a/
=47	=47	=47	=47
2F\]	2c\	4f\	2a/
.	.	4f\	.
2C/	2r	2e\	2r
2E\	2G/	2r	2g/
2E\	2B\	2e\	2g/
2r	2B\	2e\	2g/
2E\	2r	2e\	2g/
=48	=48	=48	=48
2E\	2B\	2r	2g/
2E\	2B\	2e\	2g/
1G	2B\	2d\	1b
.	1d	2d\	.
[1F	.	2.f\	2a/
.	2c\	.	[2cc\
.	.	4e\	.
=49	=49	=49	=49
1F]	1A	2c\	2cc\]
.	.	2d\	4b\
.	.	.	4a/
1E	1B	1e	1g
2.F\	1A	1c	2r
.	.	.	[2a/
4E\	.	.	.
=50	=50	=50	=50
1D	2F/	1d	4a/]
.	.	.	4g/
.	1A	.	2f/
2AA/	.	2c\	2e/
2BB/	2D/	2B\	2d/
2C/	2E/	2G/	2c/
2GG/	2G/	[2d\	2B/
=51	=51	=51	=51
1D	1F	2d\]	1A
.	.	2d\	.
2r	1E	2e\	2G/
2C/	.	2E/	2c/
2D\	1D	2F/	4B/
.	.	.	4A/
2BB/	.	2G/	2d/
=52	=52	=52	=52
1AA	1E	0A	2r
.	.	.	2c/
2D\	1F	.	2d/
2D\	.	.	2f/
4C/	2G/	2r	4e/
4BB/	.	.	4d/
2C/	2E/	2G/	2g/
=53	=53	=53	=53
2BB/	2G/	2d\	2r
2AA/	2.c\	1e	2a/
2.C/	.	.	2g/
.	4B\	.	.
.	4A/	1e	2cc\
4D\	4G/	.	.
2E\	2G/	.	2b\
2F\	2A/	2d\	[2a/
=54	=54	=54	=54
1E	1B	1e	2a/]
.	.	.	2g#i/
0AAl	0Al	0el	0al
!!LO:LB:i:g=z
=55||	=55||	=55||	=55||
*>B	*>B	*>B	*>B
*clefF4	*clefGv2	*clefGv2	*clefG2
*k[]	*k[]	*k[]	*k[]
*M2/1	*M2/1	*M2/1	*M2/1
*met(C|)	*met(C|)	*met(C|)	*met(C|)
!!section: Et incarnatus est
!!!OMD: Et incarnatus est
1E	0r	0r	0r
1F	.	.	.
=56	=56	=56	=56
1G	1E	0r	0r
1A	1F	.	.
=57	=57	=57	=57
1B	1G	0r	0r
1B	1G	.	.
=58	=58	=58	=58
0E	1G	0B	0r
.	1G	.	.
=59	=59	=59	=59
0r	1.A	1c	1e
.	.	[1c	1f
.	4G/	.	.
.	4F/	.	.
=60	=60	=60	=60
0r	1E	1c]	1g
.	1D	[1d	1a
=61	=61	=61	=61
0r	0G	1d]	0b
.	.	[1e	.
=62	=62	=62	=62
1r	0A	1e]	0cc
1F	.	1f	.
=63	=63	=63	=63
2G\	0r	1d	0b
2G\	.	.	.
1E	.	2e\	.
.	.	[2e\	.
=64	=64	=64	=64
1F	1A	2e\]	1r
.	.	2d\	.
2.E\	2G/	1e	1b
.	[2E/	.	.
4F\	.	.	.
=65	=65	=65	=65
2G\	2E/]	0r	1b
2E\	2G/	.	.
1F	2A/	.	1a
.	[2c\	.	.
=66	=66	=66	=66
1E	2c\]	1e	0g
.	2B\	.	.
2C/	2c\	1e	.
2E\	2B\	.	.
=67	=67	=67	=67
2F\	1A	1d	0a
2D\	.	.	.
2F\	1r	1c	.
2A\	.	.	.
=68	=68	=68	=68
0G	0r	0d	0b
=69	=69	=69	=69
1.E	1B	0e	0r
.	1c	.	.
2AA/	.	.	.
=70	=70	=70	=70
1E	2B\	1e	0r
.	2G/	.	.
1D	2A/	1f	.
.	[2B\	.	.
=71	=71	=71	=71
2C/	4B\]	2e\	0r
.	4A/	.	.
2AA/	1A	2c\	.
1BB	.	1d	.
.	2G#i/	.	.
=72	=72	=72	=72
1AA	1A	1e	1e
1r	2r	2.A/	1f
.	2D/	.	.
.	.	4B\	.
=73	=73	=73	=73
0r	2E/	1c	2e/
.	1F	.	2c/
.	.	2c\	2d/
.	2G/	2B\	[2e/
=74	=74	=74	=74
1r	2A/	2c\	2e/]
.	2F/	1A	1d
1AA	1E	.	.
.	.	2A/	2c#i/
=75	=75	=75	=75
0BB	1D	2F/	0d
.	.	2G/	.
.	1d	2D/	.
.	.	[2G/	.
=76	=76	=76	=76
0C	1e	2G/]	0r
.	.	2E/	.
.	1c	[1G	.
=77	=77	=77	=77
1BB	0d	2G/]	0b
.	.	2D/	.
1GG	.	[1G	.
=78	=78	=78	=78
0AA	1c	2G/]	0cc
.	.	4F#i/	.
.	.	4E/	.
.	1A	1F#i	.
=79	=79	=79	=79
1r	1.d	0G	0b
1G	.	.	.
.	2B\	.	.
=80	=80	=80	=80
2E\	1c	1r	1g
2C/	.	.	.
1F	1A	2.c\	1a
.	.	4d\	.
=81	=81	=81	=81
1E	1G	1e	1b
2F\	2r	2c\	[1a
2D\	2d\	[2f\	.
=82	=82	=82	=82
1F	2c\	2f\]	2a/]
.	2A/	2d\	4g/
.	.	.	4f/
1E	1B	1e	1g
=83	=83	=83	=83
2F\	1A	2c\	1a
2D\	.	2f\	.
2E\	2r	2e\	2g/
2F\	[2A/	2c\	[2f/
=84	=84	=84	=84
2D\	2A/]	2d\	2f/]
2E\	2G/	2B\	1e
1F	1A	2r	.
.	.	[2A/	2d/
=85	=85	=85	=85
1E	1r	2A/]	[0el
.	.	2G/	.
1AA	2.E/	1A	.
.	4F/	.	.
=86	=86	=86	=86
2GG/	2G/	2B\	0e_
1AA	2.C/	2c\	.
.	.	1A	.
.	4D/	.	.
4GG/	[2E/	.	.
4FF/	.	.	.
=87	=87	=87	=87
0EEl	2E/]	0Bl	0e]
.	2BB/	.	.
.	1El	.	.
!!LO:LB:i:g=z
=88||	=88||	=88||	=88||
*>C	*>C	*>C	*>C
*clefF4	*clefGv2	*clefGv2	*clefG2
*k[]	*k[]	*k[]	*k[]
*M2/1	*M2/1	*M2/1	*M2/1
*met(C|)	*met(C|)	*met(C|)	*met(C|)
!!section: Crucifixus
!!!OMD: Crucifixus
0r	0G	0d	0r
=89	=89	=89	=89
0r	1A	1c	0r
.	1G	1B	.
=90	=90	=90	=90
0GG	0D	0G	0B
=91	=91	=91	=91
1GG	1G	1D	1B
1GG	1G	1D	1B
=92	=92	=92	=92
0AA	0c	0C	0e
=93	=93	=93	=93
1A	1r	1D	1r
1F	1c	1A	1f
=94	=94	=94	=94
1D	1d	2A/	1f
.	.	1A	.
1AA	2c\	.	1e
.	[2A/	[2c\	.
=95	=95	=95	=95
0r	2A/]	2c\]	2f/
.	4G/	4B\	1a
.	4F/	4A/	.
.	1E	1B	.
.	.	.	2g#i/
=96	=96	=96	=96
2D\	1F	2.A/	1a
1F	.	.	.
.	.	4B\	.
.	2A/	4c\	1r
.	.	4d\	.
2E\	2G/	2e\	.
=97	=97	=97	=97
2D\	2A/	2f\	0r
2C/	1c	2e\	.
1D	.	1f	.
.	2B\	.	.
=98	=98	=98	=98
0C	0c	0e	0g
=99	=99	=99	=99
1F	1c	1f	1a
1F	1A	2d\	1a
.	.	2d\	.
=100	=100	=100	=100
1E	1B	1e	1g
1C	1c	1e	1g
=101	=101	=101	=101
1AA	1c	0e	0cc
1AA	1A	.	.
=102	=102	=102	=102
0E	0G	0e	0b
=103	=103	=103	=103
1E	1G	1e	1b
1G	1B	1d	1b
=104	=104	=104	=104
2F\	2c\	2f\	2a/
2F\	2c\	2f\	2a/
2F\	2c\	2f\	2a/
2F\	2c\	2f\	2a/
=105	=105	=105	=105
1C	1c	1e	1g
1r	2d\	1r	2f/
.	[2c\	.	[2e/
=106	=106	=106	=106
0r	2c\]	0r	2e/]
.	1A	.	4d/
.	.	.	4c/
.	.	.	1B
.	2G#i/	.	.
=107	=107	=107	=107
1F	1A	2c\	1A
.	.	2c\	.
1F	1r	2c\	1r
.	.	[2d\	.
=108	=108	=108	=108
1G	1B	2d\]	1r
.	.	4c\	.
.	.	4B\	.
1F	1c	1A	1f
=109	=109	=109	=109
1D	1d	2F/	1f
.	.	2D/	.
1r	1B	1E	1g
=110	=110	=110	=110
2F\	1A	2r	1f
2D\	.	2A/	.
1G	2r	2B\	1d
.	2B\	2G/	.
=111	=111	=111	=111
2F\	2c\	2.A/	1f
2D\	2d\	.	.
.	.	4B\	.
2A\	2c\	2c\	2e/
4G\	2A/	2d\	2f/
4F\	.	.	.
=112	=112	=112	=112
1E	1B	1e	1g
2.AA/	1A	1c	1a
4BB/	.	.	.
=113	=113	=113	=113
2C/	0A	0r	0r
2D\	.	.	.
2C/	.	.	.
[2D\	.	.	.
=114	=114	=114	=114
2D\]	0B-i	0r	0r
1GG	.	.	.
2G\	.	.	.
=115	=115	=115	=115
2F\	1A	0r	0r
2D\	.	.	.
2C/	1A	.	.
[2D\	.	.	.
=116	=116	=116	=116
2D\]	2F/	0r	0r
2.C/	2G/	.	.
.	2A/	.	.
4BB/	.	.	.
4AA/	[2c\	.	.
4GG/	.	.	.
=117	=117	=117	=117
2FF/	4c\]	0r	0r
.	4B\	.	.
2GG/	4A/	.	.
.	4G/	.	.
1AA	1F#i	.	.
=118	=118	=118	=118
*M3/1	*M3/1	*M3/1	*M3/1
*met(3)	*met()	*met(3)	*met(3)
!!primary-mensuration: met(3)
*	*rscale:2/3	*	*
0GG	0.G	0B	0d
1C	.	1G	[1e
=119	=119	=119	=119
1AA	0.r	0A	1e]
0D	.	.	0f
.	.	1d	.
=120	=120	=120	=120
1G	0.r	1B	1g
1F	.	0c	1a
1E	.	.	1g
=121	=121	=121	=121
1C	0.r	1e	0cc
0G	.	0d	.
.	.	.	1b
*	*rscale:1	*	*
=122	=122	=122	=122
*M2/1	*	*M2/1	*M2/1
*met(C|)	*	*met(C|)	*met(C|)
!!primary-mensuration: met(C|)
0C	0r	1c	1cc
.	.	1G	1r
=123	=123	=123	=123
0AA	0E	[0A	[0c
=124	=124	=124	=124
0FF	0F	0A_	0c]
=125	=125	=125	=125
0AA	0E	0A]	0c
=126	=126	=126	=126
1AA	1r	1A	1c
[1AA	1E	2A/	2c/
.	.	2A/	2c/
=127	=127	=127	=127
2AA/]	2E/	1.A	1c
2AA/	2E/	.	.
2AA/	1E	.	2r
2C/	.	[2G/	[2c/
=128	=128	=128	=128
1GG	0D	2G/]	2c/]
.	.	1.G	2.B/
1BB	.	.	.
.	.	.	4c/
.	.	.	[2d/
=129	=129	=129	=129
0AA	0E	1A	2d/]
.	.	.	4c#i/
.	.	.	4B/
.	.	1A	1c#i
=130	=130	=130	=130
1D	0D	1A	0d
1A	.	2F/	.
.	.	2A/	.
=131	=131	=131	=131
2G\	0r	2B\	1e
1A	.	1c	.
.	.	.	1f
4G\	.	4B\	.
4F\	.	4A/	.
=132	=132	=132	=132
1E	1r	1B	1.g
1G	1d	1r	.
.	.	.	2g/
=133	=133	=133	=133
2C/	2c\	1e	1g
2C/	2c\	.	.
1E	1B	2e\	1g
.	.	2e\	.
=134	=134	=134	=134
1E	2c\	2e\	1g
.	2B\	2e\	.
1C	1c	2e\	1g
.	.	2e\	.
=135	=135	=135	=135
1.E	1B	1e	0g
.	1e	1r	.
2C/	.	.	.
=136	=136	=136	=136
2G\	2d\	1r	0r
1A	2c\	.	.
.	1B	1d	.
2G\	.	.	.
=137	=137	=137	=137
2A\	0r	2c\	0r
1G	.	2B\	.
.	.	1A	.
2F#i\	.	.	.
=138	=138	=138	=138
1G	2.B\	2G/	1g
.	.	4F/	.
.	4G/	4E/	.
1r	2A/	2D/	2f/
.	[2c\	2C/	2e/
=139	=139	=139	=139
1r	2c\]	1G	1d
.	2B\	.	.
1F	1c	2A/	1c
.	.	2c\	.
=140	=140	=140	=140
2G\	0r	2B\	0r
1A	.	2.c\	.
.	.	4d\	.
[2G\	.	[2e\	.
=141	=141	=141	=141
2G\]	1r	4e\]	1r
.	.	4d\	.
4F\	.	1c	.
4E\	.	.	.
1D	1d	.	1f
.	.	2B\	.
=142	=142	=142	=142
2.A\	2c\	1c	2e/
.	2A/	.	2.f/
4G\	.	.	.
4F\	2.d\	1f	.
4E\	.	.	4g/
2D\	.	.	2a/
.	4c\	.	.
=143	=143	=143	=143
2E\	2B\	2e\	2g/
2F\	2A/	2.d\	1a
1E	1B	.	.
.	.	4c\	.
.	.	[2e\	2g/
=144	=144	=144	=144
1F	2r	2e\]	1a
.	1A	2d\	.
1E	.	[1e	1b
.	2G/	.	.
=145	=145	=145	=145
2AA/	1A	1e]	1cc
1A	.	.	.
.	1E	[1e	1b
2G\	.	.	.
=146	=146	=146	=146
2E\	1B	2e\]	1g
2G\	.	2d\	.
2F\	2c\	1f	1a
2D\	[2d\	.	.
=147	=147	=147	=147
1G	2d\]	2r	1b
.	2B\	2d\	.
2F\	2c\	1f	1a
2D\	2d\	.	.
=148	=148	=148	=148
2E\	2B\	1e	2g/
2C/	2c\	.	2a/
1G	2d\	2r	1b
.	[2G/	2d\	.
=149	=149	=149	=149
2E\	2G/]	2e\	1b
2G\	2B\	2d\	.
1F	2c\	1f	1a
.	[2d\	.	.
=150	=150	=150	=150
2G\	4d\]	2d\	2b\
.	4c\	.	.
2A\	2A/	2c\	2cc\
1G	2B\	2.g\	2.dd\
.	[2d\	.	.
.	.	4f\	4cc\
=151	=151	=151	=151
1F	4d\]	1d	4b\
.	4c\	.	4a/
.	2A/	.	1a
1E	1B	1e	.
.	.	.	2g#i/
=152	=152	=152	=152
1r	1A	0r	1a
1AA	1r	.	1r
=153	=153	=153	=153
2BB/	0r	1r	0r
1D	.	.	.
.	.	1E	.
2C/	.	.	.
=154	=154	=154	=154
2D\	0r	2F/	0r
2BB/	.	1G	.
1AA	.	.	.
.	.	2F#i/	.
=155	=155	=155	=155
2GG/	0r	1G	1d
1G	.	.	.
.	.	2r	2e/
4F\	.	2G/	[2g/
4E\	.	.	.
=156	=156	=156	=156
1D	0r	1A	2g/]
.	.	.	2f#i/
2r	.	2B\	1g
2G\	.	2B\	.
=157	=157	=157	=157
2F\	0r	1.c	2r
2E\	.	.	2g/
1F	.	.	1a
.	.	4B\	.
.	.	4A/	.
=158	=158	=158	=158
2E\	0r	1G	2b\
2G\	.	.	2b\
1F	.	2r	2cc\
.	.	2A/	4b\
.	.	.	4a/
=159	=159	=159	=159
1E	0r	2B\	1g
.	.	1c	.
1F	.	.	2r
.	.	4B\	2a/
.	.	4A/	.
=160	=160	=160	=160
2r	0r	2G/	2b-i\
1D	.	1d	2a/
.	.	.	2f/
2E\	.	2B\	2g/
=161	=161	=161	=161
2F\	0r	2A/	2.a/
1D	.	2.d\	.
.	.	.	4g/
.	.	.	4f/
.	.	4c\	4e/
2E\	.	[2B\	[2e/
=162	=162	=162	=162
1F	1A	4B\]	2e/]
.	.	4A/	.
.	.	1A	2d/
1E	1B	.	1e
.	.	2G#i/	.
=163	=163	=163	=163
1AA	1c	1A	0r
1BB	2d\	1D	.
.	2D/	.	.
=164	=164	=164	=164
1C	1E	0r	0r
1D	1F	.	.
=165	=165	=165	=165
2GG/	2G/	0r	0r
2AA/	2C/	.	.
2BB/	2D/	.	.
[2C/	2E/	.	.
=166	=166	=166	=166
4C/]	2C/	0r	0r
4D\	.	.	.
2.E\	2.c\	.	.
4D\	4B\	.	.
2BB/	[2B\	.	.
=167	=167	=167	=167
1C	2B\]	0r	1r
.	2A/	.	.
1BB	1B	.	1d
=168	=168	=168	=168
2C/	1G	0r	1e
2E\	.	.	.
1D	1A	.	1f
=169	=169	=169	=169
2r	1B	0r	1g
2G\	.	.	.
2F\	1c	.	2r
2E\	.	.	2g/
=170	=170	=170	=170
2D\	2r	0r	2f/
2C/	2c\	.	2e/
2G\	2B\	.	1d
2F\	2A/	.	.
=171	=171	=171	=171
2E\	2G/	0r	1r
2C/	1c	.	.
1D	.	.	1f
.	2B\	.	.
=172	=172	=172	=172
0C	0c	1G	1e
.	.	1G	[1e
=173	=173	=173	=173
1AA	1C	1A	1e]
1AA	1C	1A	1e
=174	=174	=174	=174
1AA	1C	1c	1.e
1AA	1C	1A	.
.	.	.	2c/
=175	=175	=175	=175
0GG	0G	0B	0d
=176	=176	=176	=176
0AA	0E	0A	0c
=177	=177	=177	=177
1D	1F	1B	1r
1C	2G/	1c	1e
.	[2A/	.	.
=178	=178	=178	=178
1D	2A/]	2A/	1f
.	2F/	2B\	.
1C	2G/	1c	1e
.	[2A/	.	.
=179	=179	=179	=179
1F	2A/]	2r	1c
.	1F	2A/	.
1BB-	.	1B-	1d
.	[2G/	.	.
=180	=180	=180	=180
1C	2G/]	2G/	1e
.	1A	2c\	.
1D	.	2F/	1d
.	2F/	[2A/	.
=181	=181	=181	=181
1AA	2E/	4A/]	1c
.	.	4G/	.
.	2.A/	2E/	.
1D	.	4D/	2.d/
.	4G/	4E/	.
.	4F/	4F/	.
.	4E/	4G/	4e/
=182	=182	=182	=182
2r	1D	1A	4f/
.	.	.	4g/
2.F\	.	.	2.a/
.	2r	1F	.
4E\	.	.	4g/
2D\	[2A/	.	2f/
=183	=183	=183	=183
2C/	2A/]	2c\	2e/
1D	2F/	2.A/	2d/
.	1E	.	1g
.	.	4B\	.
2C#i/	.	2c\	.
=184	=184	=184	=184
1D	1A	2A/	1f
.	.	2d\	.
1r	2G/	2B\	2e/
.	2A/	[2c\	[2f/
=185	=185	=185	=185
0r	1E	4c\]	4f/]
.	.	4B\	4e/
.	.	1B	4d/
.	.	.	4c/
.	1F	.	1d
.	.	2A/	.
=186	=186	=186	=186
0r	0E	1c	0e
.	.	1B	.
=187	=187	=187	=187
1.C	0r	0G	0r
2D\	.	.	.
=188	=188	=188	=188
1E	1c	0r	0r
1AA	1c	.	.
=189	=189	=189	=189
1.F	1A	1.c	0r
.	1A	.	.
4E\	.	2d\	.
4D\	.	.	.
=190	=190	=190	=190
0C	1.c	1e	1g
.	.	1e	1g
.	2B\	.	.
=191	=191	=191	=191
1r	2A/	1f	1a
.	2F/	.	.
1BB	1G	1d	1b
=192	=192	=192	=192
0AA	1r	[0e	1.cc
.	1A	.	.
.	.	.	4b\
.	.	.	4a/
=193	=193	=193	=193
0E	1B	0e]	0g
.	1B	.	.
=194	=194	=194	=194
1AA	1c	1E	2.a/
.	.	.	4g/
2D\	1A	2D/	2f/
2C/	.	2E/	2e/
=195	=195	=195	=195
2BB/	2r	1.G	2.d/
2GG/	1d	.	.
.	.	.	4c/
2r	.	.	2B/
2C/	2c\	2E/	2A/
=196	=196	=196	=196
1E	2B\	4G/	2G/
.	.	4A/	.
.	2G/	4B\	1g
.	.	4c\	.
1D	1A	1d	.
.	.	.	2f#i/
=197	=197	=197	=197
0E	2r	1.B	1g
.	2G/	.	.
.	1c	.	2r
.	.	4A/	2e/
.	.	4G/	.
=198	=198	=198	=198
1D	1d	1A	1f
1E	2r	2r	1g
.	2c\	2G/	.
=199	=199	=199	=199
1D	1d	2.A/	2r
.	.	.	2f/
.	.	4B\	.
1C	1e	1c	1g
=200	=200	=200	=200
1AA	2r	1c	1a
.	2E/	.	.
2D\	2F/	2A/	2r
2C/	2G/	[2c\	2e/
=201	=201	=201	=201
2C/	1A	2c\]	2e/
2D\	.	2A/	2f/
2E\	2r	2c\	1g
2E\	2G/	2B\	.
=202	=202	=202	=202
2F\	2c\	2A/	2r
2G\	2B\	2d\	2g/
2F\	2c\	2A/	2a/
2E\	2e\	2c\	2g/
=203	=203	=203	=203
2r	2.d\	2F/	2a/
1G	.	2G/	2b\
.	4c\	.	.
.	1A	2A/	1cc
2F\	.	2c\	.
=204	=204	=204	=204
2G\	2G/	2B\	2r
1F	1A	2A/	2c/
.	.	2D/	2d/
2G\	2B\	2r	2e/
=205	=205	=205	=205
2F\	1c	2A/	2f/
2E\	.	2G/	2g/
2D\	1d	2F/	2a/
2BB/	.	2G/	2b\
=206	=206	=206	=206
1AA	0e	1A	1cc
2AA/	.	2c\	2a/
2E\	.	2B\	[2b\
=207	=207	=207	=207
1F	1A	1d	4b\]
.	.	.	4a/
.	.	.	1a
1E	1B	1e	.
.	.	.	2g#i/
=208	=208	=208	=208
0AAl	0Al	0el	0al
!!LO:LB:i:g=z
=209||	=209||	=209||	=209||
*>D	*>D	*>D	*>D
*clefF4	*clefGv2	*clefGv2	*clefG2
*k[]	*k[]	*k[]	*k[]
*M3/1	*M3/1	*M3/1	*M3/1
*met(O/3)	*met(O/3)	*met(O/3)	*met(O/3)
!!section: Confiteor
!!!OMD: Confiteor
0C	0.r	0.r	0.r
1D	.	.	.
=210	=210	=210	=210
1F	0.r	0c	0.r
0E	.	.	.
.	.	1c	.
=211	=211	=211	=211
0.r	0G	1d	0.r
.	.	0e	.
.	1A	.	.
=212	=212	=212	=212
0E	1B	0.r	0g
.	0c	.	.
1F	.	.	1a
=213	=213	=213	=213
1E	0.r	0c	1g
0D	.	.	1.a
.	.	1B	.
.	.	.	2g/
=214	=214	=214	=214
0C	0c	1c	0e
.	.	1G	.
[1F	1c	[1A	1r
=215	=215	=215	=215
1F]	0d	1A]	0.r
1G	.	1B	.
1A	[1c	1A	.
=216	=216	=216	=216
0.E	1c]	[0.e	0g
.	0B	.	.
.	.	.	1g
=217	=217	=217	=217
0.r	1A	1e]	0a
.	1r	1f	.
.	1r	1e	1g
=218	=218	=218	=218
0.r	0.r	0d	1f
.	.	.	0e
.	.	1c#i	.
=219	=219	=219	=219
1G	1B	0d	0d
1G	1B	.	.
1F	1A	1r	1r
=220	=220	=220	=220
1G	1B	1r	0.r
0E	0c	1r	.
.	.	1G	.
=221	=221	=221	=221
0D	0d	1B	1f
.	.	0A	1f
1r	1c	.	1e
=222	=222	=222	=222
0.r	1d	1D	1f
.	0B	1.d	0g
.	.	2e\	.
=223	=223	=223	=223
0.F	0.c	0.f	0a
.	.	.	1r
=224	=224	=224	=224
0D	0d	0f	0a
1D	1D	1f	1f
=225	=225	=225	=225
1C	1E	1e	1g
0AA	0F	0c	1a
.	.	.	1cc
=226	=226	=226	=226
1GG	1G	0d	1b
1D	1F	.	1.a
[1E	[1G	[1c	.
.	.	.	2g/
=227	=227	=227	=227
1E]	1G]	1c]	0g
0D	0A	0d	.
.	.	.	1f#i
=228	=228	=228	=228
0GG	0G	0d	0g
[1C	1G	[1e	1r
=229	=229	=229	=229
1C]	0A	1e]	0.r
1AA	.	0c	.
1C	1G	.	.
=230	=230	=230	=230
0D	1F	0A	0.r
.	0E	.	.
1C	.	1r	.
=231	=231	=231	=231
0D	1F	1.A	0.r
.	1F	.	.
.	.	2B\	.
[1AA	1E	1c	.
=232	=232	=232	=232
1AA]	1F	1A	0.r
0BB	0G	0d	.
=233	=233	=233	=233
1.AA	0A	0c	0.e
2BB/	.	.	.
1C	1r	1c	.
=234	=234	=234	=234
0D	0.r	1A	0f
.	.	1F	.
1C	.	1G	[1e
=235	=235	=235	=235
0AA	0E	0A	1e]
.	.	.	0c
1r	1F	1A	.
=236	=236	=236	=236
0.r	1E	1G	1c
.	1F	1A	1c
.	1G	[1G	1B
=237	=237	=237	=237
0.r	1E	1G]	1c
.	0F	0A	0d
=238	=238	=238	=238
1AA	0E	1A	0e
1C	.	1G	.
1D	1r	1F	1f
=239	=239	=239	=239
1E	0.r	0c	1g
0F	.	.	0a
.	.	1d	.
=240	=240	=240	=240
[0.C	0c	0.e	0.g
.	1c	.	.
=241	=241	=241	=241
1C]	1.c	0E	0.r
0AA	.	.	.
.	2B\	.	.
.	1c	1E	.
=242	=242	=242	=242
0BB	1.d	0D	0.r
.	2c\	.	.
1C	2B\	1E	.
.	2A/	.	.
=243	=243	=243	=243
1D	0A	1F	0.r
0BB	.	0D	.
.	1G#i	.	.
=244	=244	=244	=244
0.AA	0.A	0.E	0.r
=245	=245	=245	=245
*M2/1	*M2/1	*M2/1	*M2/1
*met(C|)	*met(C|)	*met(C|)	*met(C|)
0D	1.A	1r	0f
.	.	1A	.
.	2F/	.	.
=246	=246	=246	=246
0C	0G	[0c	[0e
=247	=247	=247	=247
0AA	1A	1c]	0e]
.	1c	1e	.
=248	=248	=248	=248
0D	2B\	0d	0f
.	2A/	.	.
.	[1d	.	.
=249	=249	=249	=249
0E	1d]	1r	0g
.	1c#i	1G	.
=250	=250	=250	=250
0D	0d	1.A	0f
.	.	2B\	.
=251	=251	=251	=251
0C	1.G	1c	0e
.	.	1C	.
.	2A/	.	.
=252	=252	=252	=252
0GG	0B	0G	0d
=253	=253	=253	=253
0D	1A	1F	0d
.	2.B-i\	2r	.
.	.	[2f\	.
.	4A/	.	.
=254	=254	=254	=254
0r	2F/	2f\]	0a
.	2c\	2e\	.
.	2d\	2f\	.
.	[2c\	[2e\	.
=255	=255	=255	=255
0r	2c\]	2e\]	0b-i
.	4B-i\	4d\	.
.	4A/	4c\	.
.	1G	2.d\	.
.	.	4e\	.
=256	=256	=256	=256
0r	2.d\	2.f\	1a
.	4c\	4e\	.
.	2B\	2d\	2g/
.	[2A/	2e\	[2cc\
=257	=257	=257	=257
1r	2A/]	1A	4cc\]
.	.	.	4b\
.	4G/	.	1a
.	4F/	.	.
2r	1E	1B	.
2E\	.	.	2g/
=258	=258	=258	=258
2.F\	2r	1A	1a
.	1c	.	.
4G\	.	.	.
2A\	.	1F	2r
2D\	2d\	.	[2a/
=259	=259	=259	=259
1E	1B	2E/	4a/]
.	.	.	4g/
.	.	2e\	2g/
2F\	2r	2d\	2a/
[2E\	[2B\	[2e\	2g/
=260	=260	=260	=260
2E\]	2B\]	2e\]	2r
2C/	2c\	2e\	2.g/
1D	1A	1d	.
.	.	.	4f/
.	.	.	2f/
=261	=261	=261	=261
2C/	2r	1r	2g/
1D	1A	.	2f/
.	.	2A/	2r
2D\	2F/	2B\	[2f/
=262	=262	=262	=262
1C	1G	1c	4f/]
.	.	.	4e/
.	.	.	2e/
2D\	2r	2A/	2f/
2C/	[2A/	[2c\	2e/
=263	=263	=263	=263
1AA	2A/]	2c\]	2r
.	2F/	2A/	2.cc\
2r	1G	1d	.
.	.	.	4b\
2GG/	.	.	2b\
=264	=264	=264	=264
2AA/	2C/	2c\	2cc\
2GG/	1G	1d	2.b\
2BB/	.	.	.
.	.	.	4a/
2C/	2E/	2e\	[2a/
=265	=265	=265	=265
1D	2.F/	1A	4a/]
.	.	.	4g/
.	.	.	2f/
.	4G/	.	.
1AA	2.A/	2.c\	2e/
.	.	.	[2a/
.	4G/	4B\	.
=266	=266	=266	=266
2r	4F/	1A	4a/]
.	4E/	.	4g/
2.D\	2D/	.	4f/
.	.	.	4e/
.	2r	1r	2.d/
4C/	.	.	.
4BB/	[2G/	.	.
4AA/	.	.	4c/
=267	=267	=267	=267
2GG/	2G/]	1d	2B/
2D\	2F/	.	1A
2C/	2E/	2e\	.
[2D\	4D/	2f\	[2a/
.	4E/	.	.
=268	=268	=268	=268
2D\]	4F/	1d	4a/]
.	4G/	.	4g/
2D\	2.A/	.	2f/
[1C	.	2r	2e/
.	4G/	.	.
.	[2E/	[2e\	[2g/
=269	=269	=269	=269
1C]	2E/]	2e\]	4g/]
.	.	.	4f/
.	2G/	1c	1e
2r	1F	.	.
2D\	.	2B\	2d/
=270	=270	=270	=270
2C/	[0El	1c	[0el
1AA	.	.	.
.	.	1B	.
2GG/	.	.	.
=271	=271	=271	=271
1AA	0E_	2A/	0e_
.	.	1c	.
[1EEl	.	.	.
.	.	2B\	.
=272	=272	=272	=272
0EE]	0E]	0Bl	0e]
==	==	==	==
*-	*-	*-	*-
!!!RDF**kern: l=long note in original notation
!!!RDF**kern: i=editorial accidental
!!!ENC:	Jesse Rodin 8/9/2013
!!!END:	2013/08/09/
!!!EED:	Jesse Rodin
!!!EEV:	2013/08/10/
!!!ONB:	Translated from MusicXML and edited on 2013/08/10/ by Craig Sapp
!!muse2ps: T^@{OPR}^u^@{ONM}{. }@{OTL}^C^@{COM}^i2I150v85,85,85,150c190
